X:599
T:Princeton's Silver Lining
M:2/2
L:1/4
C:Colin Hume, 2006
S:Colin Hume's website,  colinhume.com  - chords can also be printed below the stave.
Q:1/2=115
%%MIDI chordname dim 0 3 6 9
K:Em
|: "Em"EE "D"FF | "A7/C#"GG "Am/C"AA | "Em/B"B B/c/ B B, | "B7"B B/c/ B B, |\
"Em"EE "D"FF | "A7/C#"GG "Am/C"AA | "Em/B"B B/c/ "B7"B ^D | "Em"F E E2 :|
|: "D"DDdD | "D"dd/e/d "D/D#"c | "Em"BBgB | "Em"gg/a/gf |\
"C"ee "G/B"dd | "Bbdim"_dd "Am"cc | "Em/B"B B/c/ "B7"B ^D | "Em"F E E2 :|

